X:1
T:Miss Catherine Stewart, Pettyvaich
T:Miss Catherine Stewart, Pettyvaich
T:William Marshall
C:William Marshall
%%score { ( 1 2 ) 3 }
L:1/8
M:12/8
K:F
V:1 treble 
V:2 treble 
V:3 bass 
V:1
 F2 d cAF GAF E2 C | F2 d cAF cde f2 c | def cAF GAF E2 G | F2 d cAF CDE [CF]3 :| fcf agf egb bge | %5
 fcf agf efg cBA | dBd cBA [DG]A[G,=B,F] [G,_B,E]D[F,C] | F2 d cAF CDE F3 | fcf agf egb bge | %9
 fcf agf efg cBA | dBd cBA [DG]A[G,=B,F] [G,_B,E]D[F,C] | F2 d cAF CDE F3 |] %12
V:2
 x12 | x12 | x12 | x12 :| x12 | x12 | F3 F3 x6 | x6 [G,B,]3 C3 | x12 | x12 | F3 F3 x6 | %11
 x6 [G,B,]3 C3 |] %12
V:3
 F,A,C F,A,C C,G,C C,G,C | F,B,D F,A,C F,A,C F,A,C | F,B,D F,A,C E,G,C C,G,C | %3
 F,B,D F,A,C C,G,B, [F,A,]3 :| F,A,C F,A,C C,G,C C,G,C | F,A,C F,A,C F,B,D F,A,C | %6
 [B,,B,]2 [B,,B,] [A,,A,]2 [F,,F,] [B,,,B,,]2 [G,,,G,,] [C,,C,]2 [A,,,A,,] | %7
 [B,,,B,,]2 [B,,,B,,] [A,,,A,,]2 [F,,,F,,] C,3 [F,,C,]3 | F,A,C F,A,C C,G,C C,G,C | %9
 F,A,C F,A,C F,B,D F,A,C | %10
 [B,,B,]2 [B,,B,] [A,,A,]2 [F,,F,] [B,,,B,,]2 [G,,,G,,] [C,,C,]2 [A,,,A,,] | %11
 [B,,,B,,]2 [B,,,B,,] [A,,,A,,]2 [F,,,F,,] C,3 [F,,C,]3 |] %12

